X:1
T:Tribus miraculis - Marenzio
T:James Gibb editions
T:#
%%score [ 1 2 3 4 ]
L:1/8
Q:1/4=200
M:none
K:Eb
V:1 treble nm="Soprano" snm="S"
V:2 treble nm="Alto" snm="A"
V:3 treble-8 nm="Tenor" snm="T"
V:4 bass nm="Bass" snm="B"
V:1
 c16- |"^Tribus miraculis" c16 | B8 (c6 d2 |"^Luca Marenzio\n(1556-1599)" e4) (d6 c2 c4- | %4
w: Tri\-||bus mi\- *|* ra\- * *|
 c2 B2 B6 c2 A4- | A4 G2 F2 G4) G4 | F4 A4 A6 G2 | A4 B4 c8- | c8 B8 | A4 A4 G8- | G16 | =A12 B4 | %12
w: |* * * * cu-|lis or- na- tum|di- em san\-|* ctum|co- li- mus:||Ho- di-|
 B8 (f6 e2 | d2 c2 d4) B4 e4- | e4 c4 B6 c2 | B4 A4 (G2 F2 G2 A2 | B2 A2 A2 GF G6) G2 | F8 =A8- | %18
w: e stel\- *|* * * la Ma\-|* gos du- xit|ad prae- se\- * * *|* * * * * * pi-|um: Ho\-|
 A4 B4 B8- | B8 z8 | (B6 AG F2 E2 F4) | G8 z8 | (e6 dc B2 A2 B4) | c4 c4 c8 | c4 B8 B4 | =A8 z8 | %26
w: * di- e||vi\- * * * * *|num,|vi\- * * * * *|num ex a-|qua fa- ctum|est|
 z4 c4 (d2 c2 d2 e2 | d4) c4 B8 | z4 c4 f2 (e2 f2 g2 | f4 e8) d4 | (e6 d2 c8) | z4 G8 =A4 | %32
w: ad nup\- * * *|* ti- as,|ad nup\- * * *|* * ti-|as: * *|Ho- di-|
 B8 z4 c4 | d4 (B2 c2 d2 e2 f2 B2 | c2 d2 e6 dc d4) | (e2 f2 g2 e2 f8- | f8) z8 | z4 B8 c4 | %38
w: e in|Jor- da\- * * * * *||ne * * * *||a Jo-|
 (_d12 c2 B2 | A4 B4) c8- | c16 | =A16 | B8 z8 | B16 | G8 B6 B2 | B4 F4 G4 G4 | F4 B8 =A4 | B8 c8 | %48
w: an\- * *|* * ne||Chri-|stus,|Chri-|stus bap- ti-|za- ri vo- lu-|it ut sal-|va- ret|
 F8 z4 f4- | f4 =e4 f8 | g8 c8 | z4 c8 =A4 | =B4 (c6 B=A B4) | c8 z8[Q:1/4=220] ||[M:3/2] z8 z4 | %55
w: nos, ut|* sal- va-|ret nos,|ut sal-|va- ret * * *|nos.||
 c4 B4 (c4- | c4 B2 A2 G2 A2 | B2 c2) B8- | %58
w: Al- le- lu\-||* * ia,|
[M:3/2][Q:1/4=220][Q:1/4=220][Q:1/4=220][Q:1/4=220] B8 z4 | g4 f4 (g4- | g4 f2 e2) d4 | %61
w: |al- le- lu\-|* * * ia,|
 e4 d4 (e4- | e4 d2 c2) B4 | c4 B4 (c4- | c4 B2 A2) G4 | c4 c4 c4 | c12 | A4 A4 A4 | %68
w: al- le- lu\-|* * * ia,|al- le- lu\-|* * * ia,|al- le- lu-|ia,|al- le- lu-|
[Q:1/4=217] (A6[Q:1/4=214] B2[Q:1/4=212] c2[Q:1/4=211] d2 |[Q:1/4=207] e8)[Q:1/4=202] c4 || %70
w: ia, * * *|* al-|
[Q:1/4=197] c12[Q:1/4=191] G4 |[Q:1/4=190] =A16 |] %72
w: le- lu-|ia.|
V:2
 (F6 ED C2 D2 E2 F2 | G2 E2 A6 GF E4) | F4 G4 (C2 D2 E2 F2 | G6 F2 E6 D2 | C2 D2 E2 F2 G2 C2 F4- | %5
w: Tri\- * * * * * *||bus mi- ra\- * * *|||
 F4 =E2 D2 E4) E4 | (F6 _ED C8) | z4 E4 E6 D2 | E4 F4 G8 | F8 E4 E4 | D16 | F12 F4 | F8 z4 (B4- | %13
w: * * * * cu-|lis * * *|or- na- tum|di- em san-|ctum co- li-|mus:|Ho- di-|e stel\-|
 B2 A2 G2 F2 G4) E4 | A4 A4 G6 A2 | G4 F4 (E2 D2 E2 F2 | G2 F2 F8) =E4 | F8 F8- | F4 F4 F8- | %19
w: * * * * * la|Ma- gos du- xit|ad prae- se\- * * *|* * * pi-|um: Ho\-|* di- e|
 F8 z8 | z4 (B,2 C2 D2 E4 D2) | E16 | z4 (E2 F2 G2 A4 G2) | A4 E4 A8 | A4 F8 G4 | C8 z8 | %26
w: |vi\- * * * *|num,|vi\- * * * *|num ex a-|qua fa- ctum|est|
 z4 F4 (F2 E2 F2 G2 | F4) =A4 B8 | z4 E4 (D2 C2 D2 E2 | D4 G4 F8 | z4 G8 =A4 | B8 E8 | %32
w: ad nup\- * * *|* ti- as,|ad nup\- * * *|* ti- as:|Ho- di-|e in|
 F4 (G8 F2 E2 | D2 C2 D2 E2 F2 G2 F2 G2 | A2 G2 F2 E2 F8) | E8 B6 AG | F2 G2 A2 B2 A4) G4 | F8 G8 | %38
w: Jor- da\- * *|||ne in * *|* * * * * Jor-|da- ne|
 z4 F4 G4 (A4- | A4 G2 F2 E2 F2 G4- | G2 F2 F6 =ED E4) | (F6 _ED C8) | D8 F8 | G6 G2 G4 D4 | %44
w: a Jo- an\-|||ne * * *|Chri- stus|bap- ti- za- ri|
 E4 E4 (F6 E2 | D16- | D8 z8 | z4 B8 =A4 | B4 c4 (F6 G2 | A2 GF G2 FG A8) | z4 G4 A8 | %51
w: vo- lu- it *|||ut sal-|va- ret nos, *||ut sal-|
 c6 B2 A2 G2 F4- | F4 E4 D8 | z4 G4 G4 G4 ||[M:3/2] G12 | E4 (E2 D2 C2 B,2 | A,4) B,4 E4 | %57
w: va\- * * * *|* ret nos.|Al- le- lu-|ia,|al- le\- * * *|* lu- ia|
 G4 F4 G4- |[M:3/2] G4 F2 E2) D4 | B4 B4 B4 | B8 z4 | G4 G4 G4 | G12 | C4 E4 E4 | E8 z4 | %65
w: al- le- lu\-|* * * ia,|al- le- lu-|ia,|al- le- lu-|ia,|al- le- lu-|ia,|
 A4 G4 (A4- | A4 G2 F2) E4 | F4 E4 (F4- | F4 E2 D2) C4 | C4 (E6 D2 || =E4 F8 E4) | F16 |] %72
w: al- le- lu\-|* * * ia,|al- le- lu\-|* * * ia,|al- le\- *|* * lu-|ia.|
V:3
 (F6 G2 A2 B2 c2 d2 | e2 c2 f6 ed c4) | d4 (e6 d2 c4- | c2 =B=A B4) (c6 d2 | e2 f2 g2 d2 e4) f4 | %5
w: Tri\- * * * * *||bus mi\- * *|* * * * ra\- *|* * * * * cu-|
 c16 | z4 c4 f6 =e2 | f4 g4 c8- | c8 (e6 d2 | c8) c8- | c4 (=B2 =A2 B4 B4) | c4 c8 d4 | d16 | z16 | %14
w: lis|or- na- tum|di- em san\-|* ctum *|* co\-|* li\- * * *|mus: Ho- di-|e,||
 z16 | z16 | z16 | z8 c8- | c4 d4 d8 | z4 (B2 c2 d2 e4 d2) | e8 z8 | (e6 dc B2 A2 B4) | %22
w: |||Ho\-|* di- e|vi\- * * * *|num,|vi- * * * * *|
 (A2 B2 c2 d2 e8) | z4 c4 e8 | f4 d8 =e4 | f4 c4 (d2 c2 d2 e2 | d4) c4 B8 | z4 f4 (f2 e2 d2 c2 | %28
w: num * * * *|ex a-|qua fa- ctum|est ad nup\- * * *|* ti- as,|ad nup\- * * *|
 B4) =A4 B8- | B16 | z8 e8- | e4 d4 (c8 | B8) z8 | z16 | z16 | z4 c4 d4 (B2 c2 | %36
w: * ti- as:||Ho\-|* di- e,||||in Jor- da\- *|
 d2 e2 f2 B2 c2 d2 e4- | e2 dc d4) (e2 f2 g2 e2 | f8) z8 | F8 G8 | A8 G8 | z8 f8- | f8 d8 | %43
w: |* * * * ne * * *||a Jo-|an- ne|Chri\-|* stus|
 e6 e2 e4 B4 | c4 c4 (B2 c2 d2 e2 | f8) z8 | f16 | d8 f6 f2 | f4 c4 d4 d4 | c8 z4 f4- | f4 =e4 f8 | %51
w: bap- ti- za- ri|vo- lu- it * * *||Chri-|stus bap- ti-|za- ri vo- lu-|it ut|* sal- va-|
 g8 c8 | z16 | z4 e4 d4 (e4- ||[M:3/2] e4 d2 c2) B4 | c4 e4 e4 | e8 z4 | e4 d4 (e4- | %58
w: ret nos.||Al- le- lu\-|* * * ia,|al- le- lu-|ia,|al- le- lu\-|
[M:3/2][K:treble-8] e4 d2 c2) B4 | E4 B4 E4 | B8 z4 | z8 e4 | c4 d4 e4- | e4 z4 c4 | A4 B4 c4- | %65
w: * * * ia,|al- le- lu-|ia,|al-|le- lu- ia,|* al-|le- lu- ia,|
 c4 z4 A4 | F4 G4 A4- | A12 | A8 z4 | A4 G4 (A4- || A4 G2 F2 G8 | F16) |] %72
w: * al-|le- lu- ia,|||al- le- lu\-||ia.|
V:4
 z16 | z16 | z16 | z16 | z16 | z16 | F,8 F,6 C,2 | F,4 _E,4 A,8- | A,8 E,8 | %9
w: ||||||or- na- tum|di- em san\-|* ctum|
 F,4 F,4 (C,2 D,2 E,2 F,2 | G,16) | F,12 B,,4 | B,,16 | z16 | z16 | z16 | z16 | z8 F,8- | %18
w: co- li- mus: * * *||Ho- di-|e,|||||Ho\-|
 F,4 B,,4 B,,8 | (B,6 A,G, F,2 E,2 F,4) | (E,2 F,2 G,2 A,2 B,8) | z4 (E,2 F,2 G,2 A,4 G,2) | %22
w: * di- e|vi\- * * * * *|num, * * * *|vi\- * * * *|
 A,8 z8 | z4 A,4 A,8 | F,4 B,8 G,4 | F,4 F,4 (B,2 A,2 B,2 C2 | B,4) =A,4 B,8 | %27
w: num|ex a-|qua fa- ctum|est ad nup\- * * *|* ti- as,|
 z4 F,4 (B,,2 C,2 D,2 E,2 | D,4) C,4 B,,8- | B,,16 | E,12 F,4 | G,8 z8 | z4 G,8 =A,4 | B,16 | %34
w: ad nup\- * * *|* ti- as:||Ho- di-|e,|ho- di-|e,|
 z4 _A,8 B,4 | C8 B,8 | A,4 (F,2 G,2 A,2 B,2 C2 G,2 | A,4 B,4) E,8 | B,,12 C,4 | _D,8 C,8- | C,16 | %41
w: ho- di-|e in|Jor- da\- * * * * *|* * ne|a Jo-|an- ne||
 F,16 | B,16 | z16 | z8 B,8- | B,8 G,8 | B,6 B,2 B,4 F,4 | G,4 G,4 F,8 | B,4 =A,4 B,8 | %49
w: Chri-|stus||Chri\-|* stus|bap- ti- za- ri|vo- lu- it|ut sal- va-|
 C8 (F,6 E,D, | C,8) z4 F,4- | F,4 =E,4 F,8 | G,16 | C,4 C4 _B,4 (C4- ||[M:3/2] C4 B,2 A,2) G,4 | %55
w: ret nos, * *|* ut|* sal- va-|ret|nos. Al- le- lu\-|* * * ia,|
 A,4 G,4 (A,4- | A,4 G,2 F,2) E,4- | E,4 z8 |[M:3/2] z8 z4 | E4 D4 (E4- | E4 D2 C2) B,4 | %61
w: al- le- lu\-|* * * ia,|||al- le- lu\-|* * * ia,|
 C4 B,4 (C4- | C4 B,2 A,2) G,4 | A,4 G,4 (A,4- | A,4 G,2 F,2) E,4 | F,4 =E,4 (F,4- | %66
w: al- le- lu\-|* * * ia,|al- le- lu\-|* * * ia,|al- le- lu\-|
 F,4 _E,2 D,2) C,4 | _D,4 C,4 (D,4- | D,4 C,2 B,,2 A,,4- | A,,2 B,,2 C,8- || C,16 | F,16) |] %72
w: * * * ia,|al- le- lu\-||||ia.|

